antfarmsite/img/mask-block.svg

<?xml version="1.0" encoding="UTF-8"?>
<svg width="360px" height="700px" viewBox="0 0 360 700" version="1.1" xmlns="http://www.w3.org/2000/svg" xmlns:xlink="http://www.w3.org/1999/xlink">
    <!-- Generator: Sketch 45.2 (43514) - http://www.bohemiancoding.com/sketch -->
    <title>Mask</title>
    <desc>Created with Sketch.</desc>
    <defs>

        <path d="M1.50636068,9 L0,9 L0,692 L1.05489754,692 C1.02198397,694.111177 0.980307788,696.142519 0.928234082,698.103508 C1.75143862,698.26692 2.48002195,698.466917 3.13385451,698.713254 C4.73579162,698.515697 6.52791736,698.293749 8.31720446,698.07424 C9.6560946,697.913267 10.9930923,697.754733 12.1815347,697.432787 L12.0528499,698.815692 C18.6971513,699.166906 22.0136248,699.340074 30.2248535,699.010811 L28.5500581,699.9986 C33.1817663,700.086403 34.3985951,696.015736 38.6707428,695.93525 L39.9556989,697.996193 C48.0363503,697.964486 56.2154078,699.774213 64.1995456,697.90595 C64.0680221,698.205945 63.8305229,698.803497 62.5219115,698.886422 C66.3256842,698.94008 77.2355098,700.281522 75.8540402,697.452299 C75.9486614,699.293733 84.1911151,697.632784 88.5550453,696.820602 L87.875665,698.179117 C91.5592688,696.442559 91.6765991,695.966957 96.8202081,695.486477 C98.0389293,695.664523 97.8884816,696.574264 96.2695127,696.227928 C100.330655,696.940112 99.4345922,694.940144 104.35868,695.664523 L102.523975,696.532801 C106.703394,696.637678 106.370327,696.171832 108.671515,695.157214 C111.299146,694.61332 116.59888,695.501111 117.216756,696.730359 C117.779753,695.981591 120.06864,694.979168 122.53163,695.332821 C122.86375,695.798667 121.966741,696.086467 121.515398,696.227928 C128.503174,697.152304 131.906699,694.647466 136.712511,695.981591 C136.811863,696.432803 137.125059,696.65719 137.523415,696.793773 C131.972934,696.759627 127.502082,696.686457 127.920308,696.586459 C127.920308,697.840098 132.404407,698.059606 128.837187,699.791286 C132.437524,698.84496 138.591688,696.793773 142.962242,697.381568 C143.17514,697.503518 143.381414,697.623028 143.540377,697.815708 L143.088088,697.957169 C144.09675,698.081557 145.000383,697.964486 145.851027,697.754733 C147.245744,697.959608 148.131399,698.113264 149.471235,698.130337 C149.988813,699.166906 154.612952,698.688865 156.848851,698.740083 C156.664339,697.369373 159.59192,697.588882 156.848851,696.457193 C157.204626,696.554752 156.42684,696.620605 154.940341,696.679141 C154.603489,696.718164 154.207973,696.740115 153.986559,696.820602 C154.030085,696.786456 154.083073,696.744993 154.138899,696.698652 C152.671324,696.723042 150.757137,696.754749 148.581796,696.791334 C150.347427,696.093784 152.193487,695.508427 154.665939,696.269391 C155.813695,695.388917 157.075942,694.481615 157.787493,694.057231 C160.847543,695.969396 166.745283,697.003526 167.566595,698.181556 C174.393516,697.413275 183.650309,697.674247 187.942327,695.098678 C189.8849,694.766976 190.174441,695.837691 190.900186,696.242562 C189.778925,696.501095 188.446658,696.462071 187.840136,696.832797 C191.720552,696.171832 199.339452,696.574264 200.265793,694.774293 C205.15771,695.586475 197.516101,696.432803 204.237992,696.137686 L203.330575,696.688896 C216.553889,699.56446 224.82946,692.093848 239.489124,695.786472 C238.473839,695.559646 237.965723,695.45477 237.758502,695.154775 C254.472393,696.781578 272.201569,693.625531 288.694046,696.208416 C293.382527,696.72792 293.890643,695.579158 296.751989,694.706001 L297.767274,696.179149 L302.659191,694.479176 C309.595872,693.235293 314.671354,698.093752 323.454095,695.740131 L322.321479,694.747464 C325.475204,694.935266 332.311586,694.162107 331.785492,695.303553 C332.108151,695.123068 332.819702,694.271862 334.052616,694.788927 L334.148184,695.559646 L341.896715,694.240155 C347.902323,694.796244 340.95618,697.298643 349.721889,697.44986 C352.979697,697.152304 358.999499,695.205993 357.776046,694.688928 C356.460812,694.652344 354.416047,694.208448 354.317641,693.437729 L357.298209,693.035296 C357.380236,692.69056 357.502609,692.344531 357.625594,692 L360,692 L360,37.8545685 C360,37.8545685 360,37.8545685 360,37.8545685 L360,9 L359.489148,9 C359.464111,7.09147026 359.439193,5.19961093 359.414886,3.32189828 C358.457319,3.35848306 357.510161,3.39262886 356.571518,3.42921364 C356.108821,3.42189668 355.648962,3.41701871 355.190995,3.41214074 L354.150162,3.33653219 C352.924817,3.19507103 351.719343,2.88288088 350.524277,2.32191421 C348.084942,3.45604248 355.53447,3.11946248 353.352505,4.44870959 C349.10969,4.22920089 344.688987,1.89996972 343.359559,1.89509175 C337.547924,0.995106092 337.936817,4.26578567 331.855512,3.65116132 C332.633298,4.22920089 333.367559,5.77551771 328.822902,6.31941148 C324.575356,6.10721974 323.603596,3.89262089 326.284215,3.42677465 C327.302339,3.37799494 327.793423,3.56335784 327.749898,3.75847668 C329.121905,3.54872393 330.922547,3.29994741 329.241128,2.67312813 L328.690432,3.2511677 C326.584164,2.6609332 320.742251,2.72190784 322.114258,1.77314247 C318.905653,2.3243532 320.742251,2.72190784 323.119135,3.02190306 C317.672739,2.18533102 314.610796,2.9975132 309.005436,2.43410755 C309.896767,2.75361465 310.717133,3.43409161 309.830533,3.42677465 C301.607949,2.70971291 306.210325,4.52675712 300.639028,4.78041162 C297.473949,3.89749886 301.773536,2.67312813 296.165337,3.41214074 C292.740996,2.81458929 295.440539,1.87557986 296.801192,1.40485566 C291.691646,2.51947204 287.254858,0.670721018 284.33674,0.465846234 L287.027767,0 C285.41826,0.275605364 284.100187,0.268288407 282.758458,0.265849422 L284.295106,1.42436754 C282.714932,1.22193174 281.376988,1.21705377 281.406321,0.734134641 C279.77789,1.49265914 282.652482,2.6609332 279.421168,3.69750205 C277.3149,3.10970654 273.00585,4.3291993 272.278212,2.79263842 C278.904536,3.31458132 271.546791,1.24876059 277.154043,1.00242305 C276.072523,1.18534696 274.753503,1.17803001 273.168598,0.975594208 C272.930153,0.802426236 273.39285,0.656087105 273.824323,0.568283626 C267.484702,-0.804865221 270.910936,2.30484132 264.340439,2.27069552 C265.174052,1.40485566 262.817038,0.626819278 261.744979,0.812182178 C264.392481,0.829255076 263.011011,2.2560616 260.582085,2.91946567 C256.369548,2.24630566 256.003364,3.42189668 253.796798,3.34384915 L256.314668,3.66091726 C255.462131,4.52675712 253.354916,4.4121248 250.41882,4.68529118 C250.167128,4.01213118 253.085246,4.22188393 252.037789,3.9243277 C248.776196,5.44625466 244.668689,2.34874305 240.12214,3.37311697 C238.015872,2.78776045 239.918704,1.74631363 238.06886,1.34875899 C232.972561,2.47313132 232.549605,0.16341203 227.193098,1.09022653 C228.73637,2.25362262 229.00604,1.9707003 225.235385,3.10482857 L234.040835,2.28532943 L228.38911,3.97798538 C231.04702,3.99505828 233.997309,3.24628973 235.589784,3.44384755 C232.896864,4.39261292 233.173158,4.10481263 234.445814,5.07065089 C230.80952,3.32433726 227.236624,6.08770785 223.032603,4.90723886 L223.161288,2.02679697 C216.841537,0.741451598 211.933535,3.50482219 203.727037,2.78044349 L206.365077,3.28043552 C205.263686,4.42675872 201.298111,3.44140857 198.641147,3.90481582 C198.888109,2.94141654 197.227506,2.59264161 196.092998,1.99265117 C196.230199,2.70727393 190.086444,1.92679856 189.341775,3.85115813 L185.678041,2.58288566 C179.051718,2.06338175 178.115914,5.32674437 171.74696,4.99748133 C173.665879,3.95115654 170.77047,3.2682406 175.037886,2.51947204 C172.910801,2.5097161 170.998507,2.33410914 170.965389,3.00239117 C169.723013,2.39996175 165.068595,4.29993147 163.112775,3.3853119 C162.216712,3.80725639 161.923386,4.8169964 159.536093,4.73650988 C159.275885,4.54139104 159.545555,4.2609077 159.545555,4.2609077 C159.536093,4.73650988 155.808017,4.90723886 157.894415,5.97307554 C151.343789,2.96824538 139.585211,6.19258423 133.881444,3.61213755 C129.240274,3.93408364 123.649106,4.2438348 119.435624,4.31456538 C119.70624,4.02676509 119.449817,3.83408524 120.246528,3.93408364 C114.434893,3.03897596 116.673631,6.69989322 110.059608,5.69990916 C106.680685,4.1438364 113.571947,4.85845915 111.464733,4.26822466 C110.547853,1.09998247 103.483434,4.70236408 99.0324521,2.85117407 L100.110188,2.66337219 C96.7085551,1.58777957 91.810015,3.86579205 86.2519651,3.63896639 C86.2519651,3.63896639 86.5225817,3.35848306 86.2850825,3.16092523 C82.4832022,4.77553365 75.2882053,5.30967147 69.9402145,5.75844481 C71.6046016,4.51944017 72.3700872,5.10235771 71.3548016,3.84384118 C68.9571001,4.02188712 72.056891,5.86576017 67.2718963,6.21941307 C65.7172698,5.5413751 62.265488,4.94626263 61.8075214,3.60238161 L66.3200069,3.52921205 C64.0084107,1.79021537 60.4790396,3.59018668 58.1012085,3.28775248 L58.4049426,2.526789 C51.4890783,2.77312653 51.3925646,4.69016915 43.9591223,4.55358596 L44.7274465,5.12918655 C40.6663041,7.02671728 41.3220291,4.06091089 37.2703489,5.4730835 L36.044058,3.54628494 C33.3634391,4.01213118 26.6547952,5.4072309 21.8480377,5.77063974 C24.5712361,4.34139422 30.1955209,3.61213755 33.6766353,2.76337059 C31.0196717,2.75117567 24.6469331,2.90727074 23.263571,3.85603611 C24.3337369,3.67067321 25.6830354,3.199949 26.7399543,3.49506625 C23.4802536,5.00967626 19.1920203,5.75356684 13.8979635,5.71942104 C14.2045362,4.49992828 12.8344211,3.97798538 10.7186908,3.72433089 C9.66082566,3.59750364 8.41655674,3.53896799 7.1013219,3.49506625 C5.29405677,3.44872552 3.38933178,3.39994581 1.54800302,3.3511661 C1.53401214,5.26595628 1.52002126,7.15656329 1.50636068,9 Z" id="path-1"></path>
    </defs>
    <g id="01.-Homepage" stroke="none" stroke-width="1" fill="none" fill-rule="evenodd">
        <g id="d-01-homepage-singaporeZoo" transform="translate(0.000000, -1058.000000)">
            <g id="explore-our-attractions" transform="translate(0.000000, 878.000000)">
                <g id="01" transform="translate(0.000000, 180.000000)">
                    <g id="img">
                        <mask id="mask-2" fill="white">
                            <use xlink:href="#path-1"></use>
                        </mask>
                        <use id="Mask" fill="#D8D8D8" xlink:href="#path-1"></use>
                    </g>
                </g>
            </g>
        </g>
    </g>
</svg>

<svg width="360" height="700" viewBox="0 0 360 700" xmlns="http://www.w3.org/2000/svg" xmlns:xlink="http://www.w3.org/1999/xlink"><defs><path d="M1.506 9H0v683h1.055a557.596 557.596 0 01-.127 6.104c.823.163 1.552.363 2.206.61l5.183-.64c1.34-.16 2.676-.32 3.865-.641l-.13 1.383c6.645.35 9.962.524 18.173.195l-1.675.988c4.632.087 5.849-3.983 10.12-4.064l1.286 2.061c8.08-.032 16.26 1.778 24.244-.09-.132.3-.37.897-1.678.98 3.804.054 14.714 1.396 13.332-1.434.095 1.842 8.337.18 12.701-.631l-.68 1.358c3.684-1.736 3.802-2.212 8.945-2.693 1.219.179 1.068 1.088-.55.742 4.06.712 3.165-1.288 8.089-.563l-1.835.868c4.18.105 3.846-.361 6.148-1.376 2.627-.544 7.927.344 8.545 1.573.563-.748 2.852-1.75 5.315-1.397.332.466-.565.753-1.017.895 6.988.924 10.392-1.58 15.198-.246.099.45.412.675.81.812-5.55-.034-10.02-.108-9.603-.208 0 1.254 4.484 1.474.917 3.205 3.6-.946 9.755-2.997 14.125-2.41.213.123.42.242.578.435l-.452.141c1.009.125 1.912.007 2.763-.202 1.395.205 2.28.358 3.62.375.518 1.037 5.142.559 7.378.61-.185-1.37 2.743-1.151 0-2.283.356.098-.422.164-1.909.222-.337.04-.732.061-.953.142l.152-.122-5.557.092c1.765-.697 3.611-1.283 6.084-.522 1.148-.88 2.41-1.787 3.121-2.212 3.06 1.912 8.958 2.947 9.78 4.125 6.827-.769 16.083-.508 20.375-3.083 1.943-.332 2.232.739 2.958 1.144-1.121.258-2.453.22-3.06.59 3.88-.661 11.5-.259 12.426-2.059 4.892.812-2.75 1.659 3.972 1.364l-.907.55c13.223 2.876 21.498-4.594 36.158-.902-1.015-.226-1.523-.331-1.73-.631 16.713 1.627 34.443-1.53 50.935 1.053 4.689.52 5.197-.629 8.058-1.502l1.015 1.473 4.892-1.7c6.937-1.244 12.012 3.615 20.795 1.261l-1.133-.993c3.154.188 9.99-.585 9.464.557.323-.18 1.035-1.032 2.268-.515l.095.77 7.749-1.319c6.005.556-.94 3.059 7.825 3.21 3.258-.298 9.277-2.244 8.054-2.761-1.315-.037-3.36-.48-3.458-1.251l2.98-.403c.082-.344.205-.69.328-1.035H360V9h-.51l-.075-5.678c-.958.036-1.905.07-2.843.107-.463-.007-.923-.012-1.381-.017l-1.04-.075a11.54 11.54 0 01-3.627-1.015c-2.44 1.134 5.01.797 2.829 2.127-4.243-.22-8.664-2.549-9.993-2.554-5.812-.9-5.423 2.37-11.504 1.756.777.578 1.512 2.125-3.033 2.668-4.248-.212-5.22-2.426-2.539-2.892 1.018-.049 1.51.136 1.466.331 1.372-.21 3.173-.458 1.491-1.085l-.55.578c-2.107-.59-7.949-.53-6.577-1.478-3.208.551-1.372.949 1.005 1.249-5.446-.837-8.508-.024-14.114-.588.892.32 1.712 1 .826.993-8.223-.717-3.62 1.1-9.192 1.353-3.165-.883 1.135-2.107-4.474-1.368-3.424-.597-.724-1.536.636-2.007-5.11 1.114-9.546-.734-12.464-.94l2.69-.465c-1.609.276-2.927.268-4.269.266l1.537 1.158c-1.58-.202-2.918-.207-2.889-.69-1.628.759 1.246 1.927-1.985 2.964-2.106-.588-6.415.631-7.143-.905 6.627.522-.731-1.544 4.876-1.79-1.081.182-2.4.175-3.985-.027-.239-.174.224-.32.655-.408-6.34-1.373-2.913 1.737-9.484 1.703.834-.866-1.523-1.644-2.595-1.459 2.647.017 1.266 1.444-1.163 2.107-4.212-.673-4.579.503-6.785.425l2.518.317c-.853.866-2.96.751-5.896 1.024-.252-.673 2.666-.463 1.619-.76-3.262 1.521-7.37-1.576-11.916-.552-2.106-.585-.203-1.627-2.053-2.024-5.096 1.124-5.52-1.186-10.876-.259 1.543 1.164 1.813.88-1.958 2.015l8.806-.82-5.652 1.693c2.658.017 5.608-.732 7.2-.534-2.692.949-2.416.66-1.143 1.627-3.636-1.747-7.21 1.017-11.413-.164l.128-2.88c-6.32-1.286-11.227 1.478-19.434.753l2.638.5c-1.101 1.147-5.067.161-7.724.625.247-.964-1.413-1.312-2.548-1.912.137.714-6.007-.066-6.751 1.858l-3.664-1.268c-6.626-.52-7.562 2.744-13.931 2.414 1.919-1.046-.977-1.729 3.29-2.478-2.126-.01-4.038-.185-4.072.483-1.242-.602-5.896 1.298-7.852.383-.896.422-1.19 1.432-3.577 1.352-.26-.196.01-.476.01-.476-.01.476-3.738.646-1.652 1.712-6.55-3.005-18.309.22-24.013-2.36-4.64.321-10.232.63-14.445.702.27-.288.014-.48.81-.38-5.811-.896-3.572 2.765-10.186 1.765-3.38-1.556 3.512-.842 1.405-1.432-.917-3.168-7.982.434-12.433-1.417l1.078-.188c-3.401-1.075-8.3 1.203-13.858.976 0 0 .27-.28.033-.478C82.483 4.776 75.288 5.31 69.94 5.758c1.665-1.239 2.43-.656 1.415-1.914-2.398.178.702 2.022-4.083 2.375-1.555-.678-5.007-1.273-5.464-2.617l4.512-.073c-2.312-1.739-5.841.061-8.219-.241l.304-.761c-6.916.246-7.012 2.163-14.446 2.027l.768.575c-4.06 1.898-3.405-1.068-7.457.344l-1.226-1.927c-2.68.466-9.39 1.861-14.196 2.225 2.723-1.43 8.348-2.159 11.829-3.008-2.657-.012-9.03.144-10.413 1.093 1.07-.185 2.419-.656 3.476-.36-3.26 1.514-7.548 2.258-12.842 2.223.307-1.22-1.064-1.741-3.18-1.995-1.057-.126-2.301-.185-3.617-.229C5.294 3.45 3.39 3.4 1.548 3.351L1.506 9z" id="a"/></defs><use fill="#D8D8D8" xlink:href="#a" fill-rule="evenodd"/></svg>
